art/systems/auto-random.svg

<?xml version="1.0" encoding="UTF-8"?>
<svg version="1.1" viewBox="0 0 398 104" xmlns="http://www.w3.org/2000/svg">
<path d="m26.768 51.992h15.258c2.32 0 4.283-0.75 5.888-2.25 1.606-1.5 2.409-3.633 2.409-6.399 0-2.039-0.844-3.873-2.532-5.502-1.687-1.629-3.609-2.443-5.765-2.443h-21.727v45.562h-2.531v-48.093h24.258c2.859 0 5.379 1.06 7.558 3.181 2.18 2.121 3.27 4.553 3.27 7.295 0 3.375-1.055 6.082-3.164 8.121-2.11 2.039-4.664 3.059-7.664 3.059h-15.258v-2.531zm0 5.062h15.258c3.656 0 6.797-1.283 9.422-3.849 2.625-2.567 3.937-5.854 3.937-9.862 0-3.445-1.342-6.474-4.025-9.088-2.684-2.613-5.795-3.92-9.334-3.92h-26.789v50.625h-2.532v-53.156h29.321c2.789 0 5.408 0.715 7.857 2.145 2.449 1.429 4.401 3.345 5.854 5.748 1.453 2.402 2.179 4.951 2.179 7.646 0 4.617-1.564 8.479-4.693 11.584-3.129 3.106-6.861 4.658-11.197 4.658h-15.258v-2.531zm0 5.063h15.258c3.281 0 6.328-0.809 9.14-2.426 2.813-1.617 5.063-3.873 6.75-6.768 1.688-2.894 2.532-6.088 2.532-9.58 0-3.164-0.838-6.135-2.514-8.912s-3.932-4.998-6.768-6.662-5.882-2.496-9.14-2.496h-31.852v55.687h-2.531v-58.218h34.383c3.679 0 7.136 0.943 10.371 2.83 3.234 1.886 5.806 4.418 7.717 7.594 1.91 3.175 2.865 6.568 2.865 10.177 0 4.172-0.897 7.84-2.69 11.004s-4.224 5.637-7.295 7.418l6.54 19.195h-2.672l-6.258-18c-0.938 0.375-1.652 0.633-2.145 0.774l5.871 17.226h-2.671l-5.731-16.628c-0.211 0.046-0.961 0.128-2.25 0.246l5.449 16.382h-2.672l-5.378-16.312h-2.286l5.133 16.312h-2.672l-5.168-16.312h-9.316v-2.531zm-1.406 18.843h-2.532v-43.031h19.196c1.57 0 2.924 0.533 4.06 1.6 1.137 1.066 1.705 2.338 1.705 3.814 0 4.078-1.922 6.117-5.765 6.117h-15.258v-2.531h15.258c1.008 0 1.799-0.263 2.373-0.791 0.574-0.527 0.861-1.459 0.861-2.795 0-0.82-0.31-1.506-0.932-2.056-0.621-0.551-1.388-0.827-2.302-0.827h-16.664v40.5z" fill="#3082ce"/>
<path d="m93.53 63.874 1.019-2.531h8.649l1.019 2.531h-10.687zm-1.969 5.063 0.984-2.531h12.621l1.09 2.531h-14.695zm-1.969 5.062 0.985-2.531h16.593l1.055 2.531h-18.633zm-20.566 6.961h-2.742l23.027-58.218h2.742l22.992 58.218h-2.707l-21.656-54.808-21.656 54.808zm21.972-48.796 1.442 3.234-18 45.562h-2.707l19.265-48.796zm2.813 6.679 1.336 3.481-15.223 38.636h-2.742l16.629-42.117zm2.672 6.961 1.336 3.551-12.481 31.605h-2.707l13.852-35.156zm34.91 35.156h-2.742l-22.992-58.218h2.707l23.027 58.218zm-28.477-58.218 23.028 58.218h-2.707l-23.028-58.218h2.707zm-5.449 0 23.027 58.218h-2.742l-22.992-58.218h2.707z" fill="#3082ce"/>
<path d="m177.17 52.941-2.531-4.184v-26.015h2.531v30.199zm5.063 8.297-2.531-4.254v-34.242h2.531v38.496zm5.062 8.402-2.531-4.289v-42.609h2.531v46.898zm-36.281-18.879 2.531 4.184v26.015h-2.531v-30.199zm-5.062-8.297 2.531 4.254v34.242h-2.531v-38.496zm-5.063-8.402 2.531 4.289v42.609h-2.531v-46.898zm0.879-11.32h2.953l35.789 58.218h-2.953l-35.789-58.218zm5.977 0h2.988l35.754 58.218h-3.024l-35.718-58.218zm5.941 0h2.953l33.188 54.105v-54.105h2.531v58.218h-2.988l-35.684-58.218zm-15.328 4.113v54.105h-2.531v-58.218h3.023l35.684 58.218h-2.918l-33.258-54.105z" fill="#3082ce"/>
<path d="m214.22 65.773v-27.844h17.262c2.789 0 5.185 1.365 7.189 4.096 2.004 2.73 3.006 6.006 3.006 9.826 0 3.844-1.002 7.125-3.006 9.844s-4.4 4.078-7.189 4.078h-17.262zm2.531-2.531h14.731c2.086 0 3.873-1.114 5.361-3.34 1.488-2.227 2.233-4.91 2.233-8.051 0-3.164-0.745-5.853-2.233-8.068s-3.275-3.323-5.361-3.323h-14.731v22.782zm-5.062 5.062h19.793c3.492 0 6.498-1.611 9.017-4.834 2.52-3.222 3.78-7.096 3.78-11.619 0-2.977-0.58-5.73-1.741-8.262-1.16-2.531-2.718-4.529-4.675-5.994s-4.084-2.197-6.381-2.197h-19.793v32.906zm-2.531 2.531v-37.968h22.324c2.742 0 5.297 0.843 7.664 2.531 2.367 1.687 4.248 3.99 5.642 6.908 1.395 2.918 2.092 6.1 2.092 9.545 0 3.422-0.697 6.598-2.092 9.527-1.394 2.93-3.275 5.239-5.642 6.926-2.367 1.688-4.922 2.531-7.664 2.531h-22.324zm-2.532 2.532h24.856c3.211 0 6.193-0.961 8.947-2.883s4.951-4.535 6.592-7.84c1.64-3.305 2.461-6.902 2.461-10.793 0-3.867-0.821-7.459-2.461-10.775-1.641-3.317-3.844-5.936-6.61-7.858-2.765-1.922-5.742-2.883-8.929-2.883h-24.856v43.032zm-2.531 2.531v-48.094h27.387c3.656 0 7.066 1.072 10.23 3.217s5.684 5.068 7.559 8.771c1.875 3.704 2.812 7.723 2.812 12.059s-0.937 8.356-2.812 12.059-4.395 6.627-7.559 8.771c-3.164 2.145-6.574 3.217-10.23 3.217h-27.387zm-2.531 2.531h29.918c3.07 0 6.035-0.703 8.894-2.109 2.86-1.406 5.332-3.293 7.418-5.66 2.086-2.368 3.756-5.198 5.01-8.491s1.881-6.732 1.881-10.318-0.627-7.019-1.881-10.301c-1.254-3.281-2.924-6.111-5.01-8.49s-4.558-4.271-7.418-5.678c-2.859-1.406-5.824-2.109-8.894-2.109h-29.918v53.156zm29.918 2.531h-32.449v-58.218h32.449c4.57 0 8.836 1.3 12.797 3.902s7.119 6.141 9.474 10.617c2.356 4.477 3.533 9.34 3.533 14.59 0 3.938-0.697 7.705-2.091 11.303-1.395 3.597-3.252 6.697-5.573 9.299-2.32 2.601-5.068 4.67-8.244 6.205s-6.474 2.302-9.896 2.302z" fill="#3082ce"/>
<path d="m283.34 42.007c-2.719 2.719-4.078 6-4.078 9.844s1.359 7.125 4.078 9.844 6 4.078 9.844 4.078 7.125-1.359 9.844-4.078c2.718-2.719 4.078-6 4.078-9.844s-1.36-7.125-4.078-9.844c-2.719-2.718-6-4.078-9.844-4.078s-7.125 1.36-9.844 4.078zm-5.308 16.242c-0.868-2.039-1.301-4.171-1.301-6.398s0.433-4.353 1.301-6.381c0.867-2.027 2.039-3.779 3.515-5.256 1.477-1.476 3.229-2.648 5.256-3.515s4.154-1.301 6.381-1.301 4.354 0.434 6.381 1.301 3.779 2.039 5.256 3.515c1.476 1.477 2.648 3.229 3.515 5.256 0.868 2.028 1.301 4.154 1.301 6.381s-0.433 4.354-1.301 6.381c-0.867 2.027-2.039 3.779-3.515 5.256-1.477 1.476-3.229 2.648-5.256 3.515-2.027 0.868-4.154 1.301-6.381 1.301s-4.354-0.433-6.381-1.301c-2.027-0.867-3.779-2.039-5.256-3.515-1.476-1.477-2.648-3.223-3.515-5.239zm-1.301-15.925c-1.688 2.906-2.531 6.082-2.531 9.527s0.849 6.621 2.548 9.527c1.7 2.907 4.002 5.209 6.909 6.909 2.906 1.699 6.082 2.548 9.527 2.548s6.621-0.849 9.527-2.548c2.907-1.7 5.209-4.002 6.909-6.909 1.699-2.906 2.548-6.082 2.548-9.527s-0.849-6.621-2.548-9.527c-1.7-2.907-4.002-5.209-6.909-6.908-2.906-1.7-6.082-2.549-9.527-2.549s-6.621 0.849-9.527 2.549c-2.907 1.699-5.215 4.001-6.926 6.908zm-2.18 20.32c-1.922-3.305-2.883-6.902-2.883-10.793s0.961-7.488 2.883-10.793 4.535-5.918 7.84-7.84 6.902-2.883 10.793-2.883 7.488 0.961 10.793 2.883 5.918 4.535 7.84 7.84 2.883 6.902 2.883 10.793-0.961 7.488-2.883 10.793-4.535 5.918-7.84 7.84-6.902 2.883-10.793 2.883-7.488-0.961-10.793-2.883-5.918-4.535-7.84-7.84zm-3.515-20.145c-1.266 2.977-1.899 6.094-1.899 9.352s0.633 6.375 1.899 9.352c1.265 2.976 2.97 5.537 5.115 7.681 2.144 2.145 4.705 3.85 7.681 5.115 2.977 1.266 6.094 1.899 9.352 1.899s6.375-0.633 9.352-1.899c2.976-1.265 5.537-2.97 7.681-5.115 2.145-2.144 3.85-4.705 5.115-7.681 1.266-2.977 1.899-6.094 1.899-9.352s-0.633-6.375-1.899-9.352c-1.265-2.976-2.97-5.537-5.115-7.681-2.144-2.145-4.705-3.85-7.681-5.115-2.977-1.266-6.094-1.899-9.352-1.899s-6.375 0.633-9.352 1.899c-2.976 1.265-5.537 2.97-7.681 5.115-2.145 2.144-3.85 4.705-5.115 7.681zm-0.879 22.676c-2.368-4.078-3.551-8.519-3.551-13.324s1.189-9.246 3.568-13.324 5.608-7.307 9.686-9.686 8.519-3.568 13.324-3.568 9.246 1.189 13.324 3.568 7.307 5.608 9.686 9.686 3.568 8.519 3.568 13.324-1.189 9.246-3.568 13.324-5.608 7.307-9.686 9.686-8.519 3.568-13.324 3.568-9.246-1.189-13.324-3.568-7.313-5.608-9.703-9.686zm-3.797-24.609c-1.524 3.586-2.285 7.348-2.285 11.285 0 3.938 0.767 7.705 2.302 11.303 1.536 3.597 3.604 6.697 6.205 9.299 2.602 2.601 5.702 4.67 9.299 6.205 3.598 1.535 7.365 2.302 11.303 2.302 3.937 0 7.705-0.767 11.303-2.302 3.597-1.535 6.697-3.604 9.299-6.205 2.601-2.602 4.669-5.702 6.205-9.299 1.535-3.598 2.302-7.365 2.302-11.303 0-3.937-0.767-7.705-2.302-11.303-1.536-3.597-3.604-6.697-6.205-9.299-2.602-2.601-5.702-4.669-9.299-6.205-3.598-1.535-7.366-2.302-11.303-2.302-3.938 0-7.705 0.767-11.303 2.302-3.597 1.536-6.697 3.604-9.299 6.205-2.601 2.602-4.675 5.708-6.222 9.317zm-2.321 23.59c-1.664-3.914-2.496-8.016-2.496-12.305s0.838-8.385 2.514-12.287 3.926-7.266 6.75-10.09 6.188-5.074 10.09-6.75 7.998-2.514 12.287-2.514 8.385 0.838 12.287 2.514 7.266 3.926 10.09 6.75 5.074 6.188 6.75 10.09 2.514 7.998 2.514 12.287-0.838 8.385-2.514 12.287c-1.676 3.903-3.926 7.266-6.75 10.09s-6.188 5.074-10.09 6.75-7.998 2.514-12.287 2.514-8.385-0.838-12.287-2.514-7.266-3.926-10.09-6.75-5.08-6.182-6.768-10.072z" fill="#3082ce"/>
<path d="m371.97 59.726 2.531-4.781v26.015h-2.531v-21.234zm5.063-9.703 2.531-4.781v35.718h-2.531v-30.937zm5.062-9.563 2.531-4.816v45.316h-2.531v-40.5zm-16.98 18.071-1.442-2.637 17.438-33.152h2.847l-18.843 35.789zm-2.918-5.52-1.477-2.672 14.625-27.597h2.883l-16.031 30.269zm-16.946 2.215 2.532 4.781v20.953h-2.532v-25.734zm-5.062-9.633 2.531 4.781v30.586h-2.531v-35.367zm-5.063-9.633 2.532 4.817v40.183h-2.532v-45zm20.461 29.813h-2.847l-20.145-38.215v53.402h-2.531v-58.218h2.848l22.675 43.031zm5.731 0h-2.883l-22.641-43.031h2.883l22.641 43.031zm25.84-38.215-20.145 38.215h-2.883l-22.605-43.031h2.847l21.235 40.359 21.199-40.359h2.883v58.218h-2.531v-53.402z" fill="#3082ce"/>
</svg>

<?xml version="1.0" encoding="utf-8"?>
<svg width="100%" height="100%" viewBox="0 0 398 104" version="1.1" xmlns="http://www.w3.org/2000/svg">
  <path d="M 26.768 51.992 L 42.026 51.992 C 44.346 51.992 46.309 51.242 47.914 49.742 C 49.52 48.242 50.323 46.109 50.323 43.343 C 50.323 41.304 49.479 39.47 47.791 37.841 C 46.104 36.212 44.182 35.398 42.026 35.398 L 20.299 35.398 L 20.299 80.96 L 17.768 80.96 L 17.768 32.867 L 42.026 32.867 C 44.885 32.867 47.405 33.927 49.584 36.048 C 51.764 38.169 52.854 40.601 52.854 43.343 C 52.854 46.718 51.799 49.425 49.69 51.464 C 47.58 53.503 45.026 54.523 42.026 54.523 L 26.768 54.523 L 26.768 51.992 Z M 26.768 57.054 L 42.026 57.054 C 45.682 57.054 48.823 55.771 51.448 53.205 C 54.073 50.638 55.385 47.351 55.385 43.343 C 55.385 39.898 54.043 36.869 51.36 34.255 C 48.676 31.642 45.565 30.335 42.026 30.335 L 15.237 30.335 L 15.237 80.96 L 12.705 80.96 L 12.705 27.804 L 42.026 27.804 C 44.815 27.804 47.434 28.519 49.883 29.949 C 52.332 31.378 54.284 33.294 55.737 35.697 C 57.19 38.099 57.916 40.648 57.916 43.343 C 57.916 47.96 56.352 51.822 53.223 54.927 C 50.094 58.033 46.362 59.585 42.026 59.585 L 26.768 59.585 L 26.768 57.054 Z M 26.768 62.117 L 42.026 62.117 C 45.307 62.117 48.354 61.308 51.166 59.691 C 53.979 58.074 56.229 55.818 57.916 52.923 C 59.604 50.029 60.448 46.835 60.448 43.343 C 60.448 40.179 59.61 37.208 57.934 34.431 C 56.258 31.654 54.002 29.433 51.166 27.769 C 48.33 26.105 45.284 25.273 42.026 25.273 L 10.174 25.273 L 10.174 80.96 L 7.643 80.96 L 7.643 22.742 L 42.026 22.742 C 45.705 22.742 49.162 23.685 52.397 25.572 C 55.631 27.458 58.203 29.99 60.114 33.166 C 62.024 36.341 62.979 39.734 62.979 43.343 C 62.979 47.515 62.082 51.183 60.289 54.347 C 58.496 57.511 56.065 59.984 52.994 61.765 L 59.534 80.96 L 56.862 80.96 L 50.604 62.96 C 49.666 63.335 48.952 63.593 48.459 63.734 L 54.33 80.96 L 51.659 80.96 L 45.928 64.332 C 45.717 64.378 44.967 64.46 43.678 64.578 L 49.127 80.96 L 46.455 80.96 L 41.077 64.648 L 38.791 64.648 L 43.924 80.96 L 41.252 80.96 L 36.084 64.648 L 26.768 64.648 L 26.768 62.117 Z M 25.362 80.96 L 22.83 80.96 L 22.83 37.929 L 42.026 37.929 C 43.596 37.929 44.95 38.462 46.086 39.529 C 47.223 40.595 47.791 41.867 47.791 43.343 C 47.791 47.421 45.869 49.46 42.026 49.46 L 26.768 49.46 L 26.768 46.929 L 42.026 46.929 C 43.034 46.929 43.825 46.666 44.399 46.138 C 44.973 45.611 45.26 44.679 45.26 43.343 C 45.26 42.523 44.95 41.837 44.328 41.287 C 43.707 40.736 42.94 40.46 42.026 40.46 L 25.362 40.46 L 25.362 80.96 Z" style="fill:rgb(48,130,206);fill-rule:nonzero;"/>
  <path d="M 93.53 63.874 L 94.549 61.343 L 103.198 61.343 L 104.217 63.874 L 93.53 63.874 Z M 91.561 68.937 L 92.545 66.406 L 105.166 66.406 L 106.256 68.937 L 91.561 68.937 Z M 89.592 73.999 L 90.577 71.468 L 107.17 71.468 L 108.225 73.999 L 89.592 73.999 Z M 69.026 80.96 L 66.284 80.96 L 89.311 22.742 L 92.053 22.742 L 115.045 80.96 L 112.338 80.96 L 90.682 26.152 L 69.026 80.96 Z M 90.998 32.164 L 92.44 35.398 L 74.44 80.96 L 71.733 80.96 L 90.998 32.164 Z M 93.811 38.843 L 95.147 42.324 L 79.924 80.96 L 77.182 80.96 L 93.811 38.843 Z M 96.483 45.804 L 97.819 49.355 L 85.338 80.96 L 82.631 80.96 L 96.483 45.804 Z M 131.393 80.96 L 128.651 80.96 L 105.659 22.742 L 108.366 22.742 L 131.393 80.96 Z M 102.916 22.742 L 125.944 80.96 L 123.237 80.96 L 100.209 22.742 L 102.916 22.742 Z M 97.467 22.742 L 120.494 80.96 L 117.752 80.96 L 94.76 22.742 L 97.467 22.742 Z" style="fill:rgb(48,130,206);fill-rule:nonzero;"/>
  <path d="M 177.166 52.941 L 174.635 48.757 L 174.635 22.742 L 177.166 22.742 L 177.166 52.941 Z M 182.229 61.238 L 179.698 56.984 L 179.698 22.742 L 182.229 22.742 L 182.229 61.238 Z M 187.291 69.64 L 184.76 65.351 L 184.76 22.742 L 187.291 22.742 L 187.291 69.64 Z M 151.01 50.761 L 153.541 54.945 L 153.541 80.96 L 151.01 80.96 L 151.01 50.761 Z M 145.948 42.464 L 148.479 46.718 L 148.479 80.96 L 145.948 80.96 L 145.948 42.464 Z M 140.885 34.062 L 143.416 38.351 L 143.416 80.96 L 140.885 80.96 L 140.885 34.062 Z M 141.764 22.742 L 144.717 22.742 L 180.506 80.96 L 177.553 80.96 L 141.764 22.742 Z M 147.741 22.742 L 150.729 22.742 L 186.483 80.96 L 183.459 80.96 L 147.741 22.742 Z M 153.682 22.742 L 156.635 22.742 L 189.823 76.847 L 189.823 22.742 L 192.354 22.742 L 192.354 80.96 L 189.366 80.96 L 153.682 22.742 Z M 138.354 26.855 L 138.354 80.96 L 135.823 80.96 L 135.823 22.742 L 138.846 22.742 L 174.53 80.96 L 171.612 80.96 L 138.354 26.855 Z" style="fill:rgb(48,130,206);fill-rule:nonzero;"/>
  <path d="M 214.221 65.773 L 214.221 37.929 L 231.483 37.929 C 234.272 37.929 236.668 39.294 238.672 42.025 C 240.676 44.755 241.678 48.031 241.678 51.851 C 241.678 55.695 240.676 58.976 238.672 61.695 C 236.668 64.414 234.272 65.773 231.483 65.773 L 214.221 65.773 Z M 216.752 63.242 L 231.483 63.242 C 233.569 63.242 235.356 62.128 236.844 59.902 C 238.332 57.675 239.077 54.992 239.077 51.851 C 239.077 48.687 238.332 45.998 236.844 43.783 C 235.356 41.568 233.569 40.46 231.483 40.46 L 216.752 40.46 L 216.752 63.242 Z M 211.69 68.304 L 231.483 68.304 C 234.975 68.304 237.981 66.693 240.5 63.47 C 243.02 60.248 244.28 56.374 244.28 51.851 C 244.28 48.874 243.7 46.121 242.539 43.589 C 241.379 41.058 239.821 39.06 237.864 37.595 C 235.907 36.13 233.78 35.398 231.483 35.398 L 211.69 35.398 L 211.69 68.304 Z M 209.159 70.835 L 209.159 32.867 L 231.483 32.867 C 234.225 32.867 236.78 33.71 239.147 35.398 C 241.514 37.085 243.395 39.388 244.789 42.306 C 246.184 45.224 246.881 48.406 246.881 51.851 C 246.881 55.273 246.184 58.449 244.789 61.378 C 243.395 64.308 241.514 66.617 239.147 68.304 C 236.78 69.992 234.225 70.835 231.483 70.835 L 209.159 70.835 Z M 206.627 73.367 L 231.483 73.367 C 234.694 73.367 237.676 72.406 240.43 70.484 C 243.184 68.562 245.381 65.949 247.022 62.644 C 248.662 59.339 249.483 55.742 249.483 51.851 C 249.483 47.984 248.662 44.392 247.022 41.076 C 245.381 37.759 243.178 35.14 240.412 33.218 C 237.647 31.296 234.67 30.335 231.483 30.335 L 206.627 30.335 L 206.627 73.367 Z M 204.096 75.898 L 204.096 27.804 L 231.483 27.804 C 235.139 27.804 238.549 28.876 241.713 31.021 C 244.877 33.166 247.397 36.089 249.272 39.792 C 251.147 43.496 252.084 47.515 252.084 51.851 C 252.084 56.187 251.147 60.207 249.272 63.91 C 247.397 67.613 244.877 70.537 241.713 72.681 C 238.549 74.826 235.139 75.898 231.483 75.898 L 204.096 75.898 Z M 201.565 78.429 L 231.483 78.429 C 234.553 78.429 237.518 77.726 240.377 76.32 C 243.237 74.914 245.709 73.027 247.795 70.66 C 249.881 68.292 251.551 65.462 252.805 62.169 C 254.059 58.876 254.686 55.437 254.686 51.851 C 254.686 48.265 254.059 44.832 252.805 41.55 C 251.551 38.269 249.881 35.439 247.795 33.06 C 245.709 30.681 243.237 28.789 240.377 27.382 C 237.518 25.976 234.553 25.273 231.483 25.273 L 201.565 25.273 L 201.565 78.429 Z M 231.483 80.96 L 199.034 80.96 L 199.034 22.742 L 231.483 22.742 C 236.053 22.742 240.319 24.042 244.28 26.644 C 248.241 29.246 251.399 32.785 253.754 37.261 C 256.11 41.738 257.287 46.601 257.287 51.851 C 257.287 55.789 256.59 59.556 255.196 63.154 C 253.801 66.751 251.944 69.851 249.623 72.453 C 247.303 75.054 244.555 77.123 241.379 78.658 C 238.203 80.193 234.905 80.96 231.483 80.96 Z" style="fill:rgb(48,130,206);fill-rule:nonzero;"/>
  <path d="M 283.338 42.007 C 280.619 44.726 279.26 48.007 279.26 51.851 C 279.26 55.695 280.619 58.976 283.338 61.695 C 286.057 64.414 289.338 65.773 293.182 65.773 C 297.026 65.773 300.307 64.414 303.026 61.695 C 305.744 58.976 307.104 55.695 307.104 51.851 C 307.104 48.007 305.744 44.726 303.026 42.007 C 300.307 39.289 297.026 37.929 293.182 37.929 C 289.338 37.929 286.057 39.289 283.338 42.007 Z M 278.03 58.249 C 277.162 56.21 276.729 54.078 276.729 51.851 C 276.729 49.624 277.162 47.498 278.03 45.47 C 278.897 43.443 280.069 41.691 281.545 40.214 C 283.022 38.738 284.774 37.566 286.801 36.699 C 288.828 35.832 290.955 35.398 293.182 35.398 C 295.409 35.398 297.536 35.832 299.563 36.699 C 301.59 37.566 303.342 38.738 304.819 40.214 C 306.295 41.691 307.467 43.443 308.334 45.47 C 309.202 47.498 309.635 49.624 309.635 51.851 C 309.635 54.078 309.202 56.205 308.334 58.232 C 307.467 60.259 306.295 62.011 304.819 63.488 C 303.342 64.964 301.59 66.136 299.563 67.003 C 297.536 67.871 295.409 68.304 293.182 68.304 C 290.955 68.304 288.828 67.871 286.801 67.003 C 284.774 66.136 283.022 64.964 281.545 63.488 C 280.069 62.011 278.897 60.265 278.03 58.249 Z M 276.729 42.324 C 275.041 45.23 274.198 48.406 274.198 51.851 C 274.198 55.296 275.047 58.472 276.746 61.378 C 278.446 64.285 280.748 66.587 283.655 68.287 C 286.561 69.986 289.737 70.835 293.182 70.835 C 296.627 70.835 299.803 69.986 302.709 68.287 C 305.616 66.587 307.918 64.285 309.618 61.378 C 311.317 58.472 312.166 55.296 312.166 51.851 C 312.166 48.406 311.317 45.23 309.618 42.324 C 307.918 39.417 305.616 37.115 302.709 35.416 C 299.803 33.716 296.627 32.867 293.182 32.867 C 289.737 32.867 286.561 33.716 283.655 35.416 C 280.748 37.115 278.44 39.417 276.729 42.324 Z M 274.549 62.644 C 272.627 59.339 271.666 55.742 271.666 51.851 C 271.666 47.96 272.627 44.363 274.549 41.058 C 276.471 37.753 279.084 35.14 282.389 33.218 C 285.694 31.296 289.291 30.335 293.182 30.335 C 297.073 30.335 300.67 31.296 303.975 33.218 C 307.28 35.14 309.893 37.753 311.815 41.058 C 313.737 44.363 314.698 47.96 314.698 51.851 C 314.698 55.742 313.737 59.339 311.815 62.644 C 309.893 65.949 307.28 68.562 303.975 70.484 C 300.67 72.406 297.073 73.367 293.182 73.367 C 289.291 73.367 285.694 72.406 282.389 70.484 C 279.084 68.562 276.471 65.949 274.549 62.644 Z M 271.034 42.499 C 269.768 45.476 269.135 48.593 269.135 51.851 C 269.135 55.109 269.768 58.226 271.034 61.203 C 272.299 64.179 274.004 66.74 276.149 68.884 C 278.293 71.029 280.854 72.734 283.83 73.999 C 286.807 75.265 289.924 75.898 293.182 75.898 C 296.44 75.898 299.557 75.265 302.534 73.999 C 305.51 72.734 308.071 71.029 310.215 68.884 C 312.36 66.74 314.065 64.179 315.33 61.203 C 316.596 58.226 317.229 55.109 317.229 51.851 C 317.229 48.593 316.596 45.476 315.33 42.499 C 314.065 39.523 312.36 36.962 310.215 34.818 C 308.071 32.673 305.51 30.968 302.534 29.703 C 299.557 28.437 296.44 27.804 293.182 27.804 C 289.924 27.804 286.807 28.437 283.83 29.703 C 280.854 30.968 278.293 32.673 276.149 34.818 C 274.004 36.962 272.299 39.523 271.034 42.499 Z M 270.155 65.175 C 267.787 61.097 266.604 56.656 266.604 51.851 C 266.604 47.046 267.793 42.605 270.172 38.527 C 272.551 34.449 275.78 31.22 279.858 28.841 C 283.936 26.462 288.377 25.273 293.182 25.273 C 297.987 25.273 302.428 26.462 306.506 28.841 C 310.584 31.22 313.813 34.449 316.192 38.527 C 318.571 42.605 319.76 47.046 319.76 51.851 C 319.76 56.656 318.571 61.097 316.192 65.175 C 313.813 69.253 310.584 72.482 306.506 74.861 C 302.428 77.24 297.987 78.429 293.182 78.429 C 288.377 78.429 283.936 77.24 279.858 74.861 C 275.78 72.482 272.545 69.253 270.155 65.175 Z M 266.358 40.566 C 264.834 44.152 264.073 47.914 264.073 51.851 C 264.073 55.789 264.84 59.556 266.375 63.154 C 267.911 66.751 269.979 69.851 272.58 72.453 C 275.182 75.054 278.282 77.123 281.879 78.658 C 285.477 80.193 289.244 80.96 293.182 80.96 C 297.119 80.96 300.887 80.193 304.485 78.658 C 308.082 77.123 311.182 75.054 313.784 72.453 C 316.385 69.851 318.453 66.751 319.989 63.154 C 321.524 59.556 322.291 55.789 322.291 51.851 C 322.291 47.914 321.524 44.146 319.989 40.548 C 318.453 36.951 316.385 33.851 313.784 31.249 C 311.182 28.648 308.082 26.58 304.485 25.044 C 300.887 23.509 297.119 22.742 293.182 22.742 C 289.244 22.742 285.477 23.509 281.879 25.044 C 278.282 26.58 275.182 28.648 272.58 31.249 C 269.979 33.851 267.905 36.957 266.358 40.566 Z M 264.037 64.156 C 262.373 60.242 261.541 56.14 261.541 51.851 C 261.541 47.562 262.379 43.466 264.055 39.564 C 265.731 35.662 267.981 32.298 270.805 29.474 C 273.629 26.65 276.993 24.4 280.895 22.724 C 284.797 21.048 288.893 20.21 293.182 20.21 C 297.471 20.21 301.567 21.048 305.469 22.724 C 309.371 24.4 312.735 26.65 315.559 29.474 C 318.383 32.298 320.633 35.662 322.309 39.564 C 323.985 43.466 324.823 47.562 324.823 51.851 C 324.823 56.14 323.985 60.236 322.309 64.138 C 320.633 68.041 318.383 71.404 315.559 74.228 C 312.735 77.052 309.371 79.302 305.469 80.978 C 301.567 82.654 297.471 83.492 293.182 83.492 C 288.893 83.492 284.797 82.654 280.895 80.978 C 276.993 79.302 273.629 77.052 270.805 74.228 C 267.981 71.404 265.725 68.046 264.037 64.156 Z" style="fill:rgb(48,130,206);fill-rule:nonzero;"/>
  <path d="M 371.967 59.726 L 374.498 54.945 L 374.498 80.96 L 371.967 80.96 L 371.967 59.726 Z M 377.03 50.023 L 379.561 45.242 L 379.561 80.96 L 377.03 80.96 L 377.03 50.023 Z M 382.092 40.46 L 384.623 35.644 L 384.623 80.96 L 382.092 80.96 L 382.092 40.46 Z M 365.112 58.531 L 363.67 55.894 L 381.108 22.742 L 383.955 22.742 L 365.112 58.531 Z M 362.194 53.011 L 360.717 50.339 L 375.342 22.742 L 378.225 22.742 L 362.194 53.011 Z M 345.248 55.226 L 347.78 60.007 L 347.78 80.96 L 345.248 80.96 L 345.248 55.226 Z M 340.186 45.593 L 342.717 50.374 L 342.717 80.96 L 340.186 80.96 L 340.186 45.593 Z M 335.123 35.96 L 337.655 40.777 L 337.655 80.96 L 335.123 80.96 L 335.123 35.96 Z M 355.584 65.773 L 352.737 65.773 L 332.592 27.558 L 332.592 80.96 L 330.061 80.96 L 330.061 22.742 L 332.909 22.742 L 355.584 65.773 Z M 361.315 65.773 L 358.432 65.773 L 335.791 22.742 L 338.674 22.742 L 361.315 65.773 Z M 387.155 27.558 L 367.01 65.773 L 364.127 65.773 L 341.522 22.742 L 344.369 22.742 L 365.604 63.101 L 386.803 22.742 L 389.686 22.742 L 389.686 80.96 L 387.155 80.96 L 387.155 27.558 Z" style="fill:rgb(48,130,206);fill-rule:nonzero;"/>
</svg>
